src/assets/bold/lm-file-info-bold.svg

<svg width="24" height="24" viewBox="0 0 24 24" fill="none" xmlns="http://www.w3.org/2000/svg" fill="currentColor">
<path d="M4.44271 12.0101C4.44271 9.82832 4.43813 7.64806 4.44271 5.46628C4.44728 3.6184 5.51911 2.55267 7.36547 2.55114C9.439 2.55114 11.5125 2.53285 13.5845 2.56944C13.92 2.57554 14.3316 2.74173 14.5725 2.97347C16.0895 4.43867 17.5791 5.9313 19.0474 7.44528C19.2593 7.66331 19.4148 8.03837 19.4163 8.34178C19.4423 11.8027 19.4407 15.2637 19.4285 18.7247C19.424 20.3225 18.3033 21.437 16.6918 21.4431C13.5007 21.4569 10.3096 21.4569 7.12 21.4431C5.59382 21.437 4.461 20.3057 4.44728 18.7704C4.42746 16.517 4.44271 14.2635 4.44118 12.0116L4.44271 12.0101ZM18.003 8.89523C17.8841 8.85864 17.852 8.83882 17.8185 8.83882C16.8458 8.83424 15.873 8.83882 14.9003 8.82662C13.9306 8.81442 13.2644 8.21981 13.1714 7.25318C13.1271 6.80645 13.1515 6.35363 13.1485 5.90386C13.1454 5.2818 13.1485 4.65974 13.1485 4.02091C12.903 4.00871 12.7429 3.99347 12.5828 3.99347C10.8356 3.99194 9.0868 3.98889 7.33955 3.99347C6.30888 3.99652 5.87436 4.44324 5.87436 5.4861C5.87436 9.82832 5.87436 14.1705 5.87436 18.5143C5.87436 19.551 6.30888 20.0008 7.34565 20.0039C10.4087 20.01 13.4732 20.01 16.5363 20.0039C17.5746 20.0023 18.0045 19.5602 18.006 18.5188C18.0076 15.4741 18.006 12.4279 18.006 9.38312V8.89675L18.003 8.89523ZM14.6106 5.11714C14.6106 5.82 14.5969 6.45883 14.6243 7.09461C14.6289 7.20286 14.8073 7.38735 14.9125 7.39192C15.562 7.41936 16.213 7.40564 16.8778 7.40564C16.1155 6.63569 15.4004 5.91301 14.6106 5.11561V5.11714Z" fill="black"/>
<path d="M13.2896 16.6967C13.2588 16.8182 13.2348 16.9174 13.2057 17.015C13.1989 17.0372 13.1732 17.0629 13.151 17.0714C12.7163 17.2374 12.2851 17.4137 11.8009 17.3743C11.409 17.3435 11.0292 17.0988 10.9487 16.7532C10.9077 16.5786 10.9059 16.3801 10.947 16.2039C11.0514 15.747 11.2927 14.2412 11.409 13.7878C11.4672 13.5619 11.522 13.3309 11.5425 13.0982C11.5699 12.8056 11.4227 12.6636 11.1267 12.6824C10.9487 12.6926 10.7725 12.7406 10.586 12.7731C10.6099 12.6772 10.6339 12.5712 10.663 12.4651C10.6698 12.4411 10.6938 12.412 10.716 12.4052C11.1506 12.2512 11.5767 12.0698 12.0558 12.0989C12.458 12.1245 12.831 12.3709 12.8892 12.7303C12.9268 12.9562 12.9097 13.2026 12.8584 13.4267C12.7334 13.9606 12.4716 15.54 12.3313 16.0687C12.3005 16.1834 12.292 16.3049 12.2885 16.4229C12.2817 16.6283 12.3707 16.7361 12.576 16.7754C12.7916 16.8182 13.0021 16.7925 13.2091 16.719C13.228 16.7121 13.2485 16.707 13.2913 16.6933L13.2896 16.6967Z" fill="black"/>
<path d="M13.2896 10.6889C13.2845 10.9952 13.1442 11.2005 12.9012 11.3374C12.5744 11.5222 12.1842 11.4777 11.9019 11.2296C11.5699 10.9387 11.5905 10.4305 11.9464 10.155C12.4187 9.78883 13.1356 10.0027 13.2691 10.5486C13.2811 10.5999 13.2845 10.6547 13.2896 10.6872V10.6889Z" fill="black"/>
</svg>

<svg xmlns="http://www.w3.org/2000/svg" width="24" height="24" fill="currentColor" viewBox="0 0 24 24">
  <path d="M4.443 12.01c0-2.182-.005-4.362 0-6.544.004-1.848 1.076-2.913 2.922-2.915 2.074 0 4.147-.018 6.22.018.335.007.747.173.987.404a193.555 193.555 0 0 1 4.475 4.472c.212.218.368.593.37.897.025 3.46.024 6.922.011 10.383-.004 1.598-1.125 2.712-2.736 2.718-3.191.014-6.382.014-9.572 0-1.526-.006-2.659-1.137-2.673-2.673-.02-2.253-.004-4.506-.006-6.758l.002-.002Zm13.56-3.115c-.119-.036-.151-.056-.184-.056-.973-.005-1.946 0-2.919-.012-.97-.013-1.636-.607-1.729-1.574-.044-.447-.02-.9-.022-1.35-.004-.621 0-1.243 0-1.882-.246-.012-.406-.028-.566-.028-1.747-.001-3.496-.004-5.243 0-1.031.004-1.466.45-1.466 1.493v13.028c0 1.037.435 1.487 1.472 1.49 3.063.006 6.127.006 9.19 0 1.039-.002 1.468-.444 1.47-1.485.002-3.045 0-6.091 0-9.136v-.486l-.003-.002Zm-3.392-3.778c0 .703-.014 1.342.013 1.978.005.108.183.292.288.297.65.027 1.301.014 1.966.014l-2.267-2.29v.001Z"/>
  <path d="M13.29 16.697c-.031.121-.055.22-.084.318a.104.104 0 0 1-.055.056c-.435.166-.866.343-1.35.303-.392-.03-.772-.275-.852-.62a1.24 1.24 0 0 1-.002-.55c.104-.457.346-1.963.462-2.416a4.3 4.3 0 0 0 .133-.69c.028-.292-.12-.434-.415-.416-.178.01-.354.059-.541.091.024-.096.048-.202.077-.308.007-.024.03-.053.053-.06.435-.154.86-.335 1.34-.306.402.025.775.272.833.631.038.226.02.473-.03.697-.126.534-.387 2.113-.528 2.642-.03.114-.039.236-.042.354-.007.205.082.313.287.352.216.043.426.018.633-.056l.082-.026-.001.004Zm0-6.008a.709.709 0 0 1-.389.648.855.855 0 0 1-1-.107.69.69 0 0 1 .045-1.075c.473-.366 1.19-.152 1.323.394.012.05.015.106.02.138v.002Z"/>
</svg>
